X:0
T:Baby with the Bath Water
M:6/8
C:© Paul Gitlitz 2010
K:Em
["Em"E2B2][E2B2] B,D|[[E2B2][E2B2] B,D|[E2B2][E2B2] B,D|([E4B4]E)C|!
|:"C"Ec "Em"EB EA|"D"GFD "Em"E3|"Bm"g2f- fed|"D"B3 AGF|!
"Em"EB,E "G"GEG|"D/B"BGB "Em"e3|"D"f3 fed|"Bm"B3 BAF|!
"C"Ec E"Em"B EA|"D"GFD "Em"E3|"Bm"g2f- fed|"Am"a2g- "Em"gfe|!
"Em"g2f- "Bm"fed|"Am"a2g- "Em"gfe|"D"agf "C"edc|"Em"BAG "Bm"FED|!
"C"C2C- CEF|"Em"G2G- GFE|"C"C2C- CEF|"Em"GAG "Bm"FED|!
"C"C2C- CEF|"Em"G2G- GFE|"C"CEF "Em"GAB|"C"cdc "Em"BAG|!
"Em"B3 BAG|"Em"B3 edB|"D"f3 fed|"Bm"fab "D"afg|!
"C"c2c- cef|"C"e2e- ecB|"Em"BcB "D"AGF|"Cm"_E3-"B"EB,2:|
